!!!COM: Martinů, Bohuslav (Jan)
!!!OTL: [T501_Mau-w78p58h8m9-18]
**kern	**kern	**dynam	**kern	**dynam
*grp:A	*grp:B	*grp:B	*grp:B	*grp:B
*part2	*part2	*part2	*part1	*part1
*staff3	*staff2	*	*staff1	*
*I"Piano	*	*	*I"Violin	*
*I'Pno.	*	*	*I'Vln.	*
*clefF4	*clefG2	*	*clefG2	*
*k[]	*k[]	*	*k[]	*
*C:	*C:	*	*C:	*
*M3/4	*M3/4	*	*M3/4	*
=132	=132	=132	=132	=132
!	!	!	!LO:TX:t=[[quarter]=176]	!
!	!	!LO:DY:ed=brack	!	!LO:DY:ed=brack
(4EEE-X 4EE-X	2e 2a 2cc#X)	p >	4g-X]	pp
2GGG-X 2GG-X)	.	.	(4e-X	.
.	(4d-X 4g-X 4b-X	pp ]	[4g-	.
=133	=133	=133	=133	=133
(4EEE-X 4EE-X	2e 2a 2cc#X)	.	4g-])	.
2GGG-X 2GG-X)	.	<	(2b-X	<
.	([4gn [4ccn [4ee	[[	.	[[
=134	=134	=134	=134	=134
(4EEE-X 4EE-X	4g] 4cc] 4ee]	.	2g-X)	.
2GGG-X 2GG-X)	4a-X 4dd-X 4ff	.	.	.
.	[4g [4cc [4ee	>	(4e-X	>
=135	=135	=135	=135	=135
(4EEE-X 4EE-X	4g] 4cc] 4ee])	.	2g-X)	]]
2GGG-X 2GG-X)	(2f 2b-X 2dd-X	]	.	.
.	.	.	([4b-X	.
=136	=136	=136	=136	=136
(4EEE-X 4EE-X	4e 4g 4ccn	.	4b-]	.
2GGG-X 2GG-X)	2d-X 2g-X 2b-X)	.	4e-X)	.
.	.	.	([4f	.
!!linebreak:original
=137	=137	=137	=137	=137
(4EEE-X 4EE-X	(2e 2a 2cc#X	<	4f]	<
2GGG-X 2GG-X)	.	.	2g-X)	[[
.	[4g [4ccn [4ee	[	.	.
=138	=138	=138	=138	=138
(4EEE-X 4EE-X	4g] 4cc] 4ee]	.	2B-X	.
2GGG-X 2GG-X)	4a-X 4dd-X 4ff	.	.	.
.	[4g [4cc [4ee	.	(4d-X	.
=139	=139	=139	=139	=139
(4EEE-X 4EE-X	4g] 4cc] 4ee])	.	2e-X)	<
2GGG-X 2GG-X)	(2g-X 2b-X 2dd-X	>	.	.
.	.	.	[4g-X	[
=140	=140	=140	=140	=140
(4EEE-X 4EE-X	2f 2a 2cc)	]]	4g-]	.
2GGG-X 2GG-X)	.	.	(4f	.
.	(4e-X 4g-X 4b-X	<	[4e-X	.
=141	=141	=141	=141	=141
(4EEE-X 4EE-X	2gn 2b-X 2ee-X	[ p	4e-])	.
2GGG-X 2GG-X)	.	.	2B-X	.
.	[4a [4dd [4ff#X	.	.	.
=||	=||	=||	=||	=||
*-	*-	*-	*-	*-
!!!system-decoration: s1[({(s2,s3)})]
!!!EED: Rafael Laurindo
!!!EEV: 2021/08/12
!!!EED2: Daniel Wright
!!!EEV2: 2022/02/16
